X:1
T:Faith (Wesley), 76.76.78.76
T:Faith (Wesley), 76.76.78.76
T:Samuel Sebastian Wesley, 1872
T:Public Domain Courtesy of the Cyber Hymnal™
C:Samuel Sebastian Wesley, 1872
Z:Public Domain
Z:Courtesy of the Cyber Hymnal™
%%score ( 1 2 ) ( 3 4 )
L:1/8
Q:1/4=108
M:4/4
K:Eb
V:1 treble 
V:2 treble 
V:3 bass 
V:4 bass 
V:1
 [EG]3 [EG] [DF]2 E2 | [EA]2 [EA]2 [EG]2 [EB]2 | [Ec]2 [EB]2 [FA]2 [EG]2 | [DF]6 z2 | %4
 [EB]3 [DA] [EG]2 [DF]2 | E2 [B,F]2 [B,G]2 [Dc]2 | [EB]2 E2 [EG]2 [DF]2 | E8 | %8
 [EG]3 [EG] [Ec]2 [F=B]2 | [GB]2 (BA) [DG]2 [DG]2 | (cd) [Ge]2 [Fd]2 c2 | [Gc]2 [G=B]2 [Gc]4 | %12
 [GB]3 [GB] [FB]2 [FB]2 | [EG]3 [EG] [DG]2 [DG]2 | [CE]2 [CF]2 [B,E]2 [B,D]2 | [B,E]8 |] %16
V:2
 x6 E2 | x8 | x8 | x8 | x8 | E2 x6 | x2 E2 x4 | E8 | x8 | x2 F2 x4 | G2 x3 (EF) x | x8 | x8 | x8 | %14
 x8 | x8 |] %16
V:3
 [E,B,]3 [E,B,] [B,,A,]2 [C,G,]2 | [A,,C]2 [A,,C]2 [E,B,]2 [G,B,]2 | A,2 [G,B,]2 [D,B,]2 [D,B,]2 | %3
 [B,,B,]6 z2 | [G,B,]3 [F,B,] [E,B,]2 [B,,B,]2 | [C,G,]2 (B,A,) [E,G,]2 [F,,F,A,]2 | %6
 [G,,G,B,]2 [A,,C]2 [B,,B,]2 (B,A,) | [E,G,]8 | [C,G,]3 [C,G,] [C,G,]2 [D,G,]2 | %9
 [E,G,]2 [F,C]2 [G,=B,]2 [G,B,]2 | [E,C]2 [C,C]2 A,2 [A,C]2 | [G,D]2 [G,D]2 [C,E]4 | %12
 [E,E]3 [E,E] [B,,E]2 [B,,E]2 | [C,C]3 [C,C] [A,,C]2 [G,,=B,]2 | %14
 [A,,C]2 [G,,A,]2 [B,,G,]2 [B,,F,]2 | [E,G,]8 |] %16
V:4
 x8 | x8 | A,2 x6 | x8 | x8 | x2 F,2 x4 | x6 B,,2 | x8 | x8 | x8 | x4 (F,G,) x2 | x8 | x8 | x8 | %14
 x8 | x8 |] %16

